X:1
T: Charlie Hunter  
C:
R:Jig
Q:180
K:D
M:6/8
L:1/16
D2F2A2 G2B2d2|A2d2f2 a4g2|f2e2d2 B2c2d2|e2c2A2 G2F2E2|D2F2A2 G2B2d2|A2d2f2 a4g2|f2e2f2 g2e2c2|e2d2d2 d4A2|
D2F2A2 G2B2d2|A2d2f2 a4g2|f2e2d2 B2c2d2|e2c2A2 G2F2E2|D2F2A2 G2B2d2|A2d2f2 a4g2|f2e2f2 g2e2c2|e2d2d2 d2f2g2|
a2f2d2 d4c2|B2G2G2 G4F2|E2^G2B2 e4d2|c2A2A2 A2a2g2|f2d2A2 F2D2F2|G2B2d2 g4g2|f2e2f2 g2e2c2|e2d2d2 d2f2g2|
a2f2d2 d4c2|B2G2G2 G4F2|E2^G2B2 e4d2|c2A2A2 A2a2g2|f2d2A2 F2D2F2|G2B2d2 g4g2|f2e2f2 g2e2c2|d6 d6||
